X: 032
T: Paddy Wack
B: 204 Favourite Country Dances
N: Published by Straight & Skillern, London ca.1775
F: http://imslp.org/wiki/204_Favourite_Country_Dances_(Various) p.16 #32
Z: 2014 John Chambers <jc:trillian.mit.edu>
M: 6/8
L: 1/8
K: G
% - - - - - - - - - - - - - - - - - - - - - - - - -
D |\
GBd gfg | edc BAG | GBd gfg | fdd (d2e/f/) |\
geg fdB | cec dBG | BdB cAc | BGG G2 :|
|: c |\
BdB cec | dBG {B}A2G | Bcd efg | fdd (d2e/f/) |\
geg fdB | cec dBG | BdB cAc | BGG G2 :|
% - - - - - - - - - - - - - - - - - - - - - - - - -
%%begintext align
%% Turn right hands & cast off & lead
%% thro' the 3d Cu. & cast up .| turn left
%% hands lead thro' the top & cast off :|
%% foot it contrary corner's & turn .|.
%% hands round 4 at bottom & right
%% left at top :|:
%%endtext

%%sep 1 1 500
%%sep 1 1 500
